X: 82
T:Tom and Jerry
% Nottingham Music Database
S:Kevin Briggs, via EF
M:4/4
L:1/4
K:A
P:A
e|"A"ec/2B/2 A/2c/2B/2A/2|"A"c/2B/2A/2c/2 B/2A/2B/2c/2|\
"A"e/2f/2e/2f/2 a/2f/2e/2d/2|"D"c/2d/2e/2f/2 "E7"e/2d/2c/2B/2|
"A"ec/2B/2 A/2c/2B/2A/2|"A"c/2B/2A/2c/2 B/2A/2B/2c/2|\
"A"e/2f/2e/2f/2 a/2f/2e/2d/2|"E7"c/2A/2B/2c/2 "A"A::
P:B
E/2D/2|"A"C/2E/2A/2E/2 C/2E/2A/2C/2|"D"D/2F/2A/2F/2 D/2F/2A/2F/2|\
"A"AA/2c/2 B/2c/2A/2B/2|"A"c/2A/2B/2c/2 "D"A/2F/2E/2D/2|
"A"C/2E/2A/2E/2 C/2E/2A/2C/2|"D"D/2F/2A/2F/2 D/2F/2A/2F/2|\
"A"AA/2c/2 B/2c/2A/2B/2|"E7"c/2A/2B/2c/2 "A"A:|<end>
<start>
